!!!OTL: Bluemlein auf der Haide
!!!ARE: Europa, Mitteleuropa, Deutschland
!!!SCT: A0635B
!!!YEM: Copyright 1995, estate of Helmut Schaffrath.
**kern
*ICvox
*Ivox
*M3/1
*k[f#]
*G:
{1cc
=1
0cc
1cc
=2
0dd
1dd
=3
0b
1b
=4
0g}
{1ee
=5
1ee
1dd
1b
=6
1cc
1dd
2dd
2cc
=7
2b
2a
1g
2a
[2cc
=8
2cc]
2a
1b
1cc
=9
0r}
==
!!!AGN: Romanze, Ballade, Lied, religioeses Lied
!! Notenbucher 1551 No. 3.
!!!ONB: ESAC (Essen Associative Code) Database: ALTDEU
!!!AMT: simple triple
!!!AIN: vox
!!!EED: Helmut Schaffrath
!!!EEV: 1.0
*-
